X: 34
T: 31A. PADDY ON THE TURNPIKE
B: Sam Bayard, "Hill Country Tunes" 1944 #31A
S: Played by Irvin Yaugher Jr, Mt Independence, PA, Oct 19 1943. As played by his great-uncle.
N: The 4/4+5/4 time signature was used by Bayard, to say that some bars contain 5 beats.
R: reel
M: 45/44
L: 1/8
Z: 2010 John Chambers <jc:trillian.mit.edu>
K: Ador
((3EFG) |\
A3^G A2"a."AB | ^cdef gfed | BG-G2 G2 ((3DEF) GA | BGAF GFED |
"b."EAA^G A2A2 | BABd e2d2 ef | gage dBGB | ^/cABG A2 :: z2 |
ea-ab a3f | bfaf "c."gfed | efga g3g | bfaf ^/ge dz |
eaab a3f | bfaf ^/ge dz ef | gage dBGB | ^/cABG A2 :|
P: VAR:
"a"B2 || "b."EAA2 || "c."ge dz |] y8 y8 y8 y8 y8 y8

%%sep 2 1 500
%%sep 1 1 500

